!!!OTL-incipit: ES WOLLT SICH EIN MAEDCHEN
!!!ARE: Europa, Mitteleuropa, Deutschland, Rheinland
!!!SCT: Z0017
!!!TXL: @@DE
!!!YEM: Copyright 1995, estate of Helmut Schaffrath.
**kern	**text
*ICvox	*
*M3/8	*
*k[f#]	*
*G:	*
!LO:TX:a:t=Rheinländiſch.	!
{8d	Es
=1	=1
8.g	wollt
16g	ſich
8g	ein
=2	=2
8.b/	Mädchen
16g	.
8b/	die
=3	=3
8.dd	Lämm-
16ee	.
8dd	-lein
=4	=4
8.b/	hü-
16cc}	-ten
{8dd	im
=5	=5
(4.cc	Wal-
=6	=6
4a)}	-de,
{8d	Da
=7	=7
8.g	kam
16g	.
8g	ein
=8	=8
8.b/	Rei-
16g	-ter
8b/	ge-
=9	=9
8.dd	-rit-
16ee	-ten
8dd	da-
=10	=10
8.b/	-her
16cc}	.
{8dd	ſo
=11	=11
(4.cc	ſtol-
=12	=12
4a)}	-ʒe,
{8g	feins
=13	=13
8.b/	Mädchen
16a	.
8b/	feins
=14	=14
8.a	Mädchen
16g	.
8a	was
=15	=15
8.b/	macheſt
16cc/	.
8b/	du
=16	=16
8a}	hier,
{8.aL	hütſt
16bJ	.
=17	=17
8.cc	du
16cc	dir
8cc	die
=18	=18
8.cc	Lämmlein
16b	.
8cc	und
=19	=19
8.ee	weineſt
16dd	.
8dd	du
=20	=20
4b/}	für,
{8b/	hütſt
=21	=21
8gg	du
8ff#	dir
8ee	die
=22	=22
8dd/	Lämmlein
8cc/	.
8b/	im
=23	=23
(4.cc	Wal-
=24	=24
4.a)	.
=25	=25
4g}	-de.
==	==
!!!AGN: Sagen - Lied, Romanze
!!!ONB: ESAC (Essen Associative Code) Database: ZUCCAL
!!!AMT: simple triple
!!!AIN: vox
!!!EED: Helmut Schaffrath
!!!EEV: 1.0
!!!GTL: I. Ernste Romanzen und Sagen.
!!!URL-scan: https://www.digitale-sammlungen.de/de/view/bsb11160571?page=40
!!!ENC: Anna Maria Matuszewska
!!!EEV: 2025/01/23
*-	*-
